X: 42758
T: White Leaf, The
R: reel
M: 4/4
K: Amajor
A2 cA eAcA|B/c/d ef edcA|Bcde fdde|fdad fdcB|
A2 cA eAcA|B/c/d ef edcA|Bcde fgaf|edcB A2:|
aA ~A2 cAce|a2 ga fece|bf ~f2 fece|bffe ^defg|
aA ~A2 cAce|a2 ga faec|Bcde fgaf|edcB A2:|

